icons/evolvere-blue-folders-flat-vivid-dark-fallback/apps/64/ubuntuone-music.svg

<?xml version="1.0" encoding="UTF-8" standalone="no"?>
<!-- Created with Inkscape (http://www.inkscape.org/) -->

<svg
   xmlns:dc="http://purl.org/dc/elements/1.1/"
   xmlns:cc="http://creativecommons.org/ns#"
   xmlns:rdf="http://www.w3.org/1999/02/22-rdf-syntax-ns#"
   xmlns:svg="http://www.w3.org/2000/svg"
   xmlns="http://www.w3.org/2000/svg"
   xmlns:sodipodi="http://sodipodi.sourceforge.net/DTD/sodipodi-0.dtd"
   xmlns:inkscape="http://www.inkscape.org/namespaces/inkscape"
   width="64"
   height="64"
   id="svg13094"
   version="1.1"
   inkscape:version="0.48.4 r9939"
   sodipodi:docname="ubuntuone-music.svg">
  <sodipodi:namedview
     id="base"
     pagecolor="#ffffff"
     bordercolor="#666666"
     borderopacity="1.0"
     inkscape:pageopacity="0"
     inkscape:pageshadow="2"
     inkscape:zoom="11.313709"
     inkscape:cx="41.759526"
     inkscape:cy="32.958335"
     inkscape:document-units="px"
     inkscape:current-layer="svg13094"
     showgrid="true"
     inkscape:snap-bbox="true"
     inkscape:bbox-paths="true"
     inkscape:bbox-nodes="true"
     inkscape:snap-bbox-edge-midpoints="true"
     inkscape:snap-bbox-midpoints="true"
     inkscape:object-paths="true"
     inkscape:snap-intersection-paths="true"
     inkscape:object-nodes="true"
     inkscape:snap-smooth-nodes="true"
     inkscape:snap-midpoints="true"
     inkscape:snap-object-midpoints="true"
     inkscape:snap-center="true"
     showguides="true"
     inkscape:guide-bbox="true"
     inkscape:window-width="1920"
     inkscape:window-height="1025"
     inkscape:window-x="-2"
     inkscape:window-y="32"
     inkscape:window-maximized="1"
     inkscape:snap-global="false"
     fit-margin-top="0"
     fit-margin-left="0"
     fit-margin-right="0"
     fit-margin-bottom="0"
     showborder="true"
     inkscape:showpageshadow="false"
     inkscape:snap-page="true">
    <inkscape:grid
       type="xygrid"
       id="grid3075"
       empspacing="5"
       visible="true"
       enabled="true"
       snapvisiblegridlinesonly="true"
       originx="1.6362304e-08px"
       originy="18px" />
  </sodipodi:namedview>
  <defs
     id="defs13096" />
  <metadata
     id="metadata13099">
    <rdf:RDF>
      <cc:Work
         rdf:about="">
        <dc:format>image/svg+xml</dc:format>
        <dc:type
           rdf:resource="http://purl.org/dc/dcmitype/StillImage" />
        <dc:title />
      </cc:Work>
    </rdf:RDF>
  </metadata>
  <path
     id="path3983-2"
     d="m 0,4 0,30 0,28 2,2 30,0 30,0 2,-2 L 64,34 64,4 32,4 0,4 z"
     style="color:#000000;fill:#de5a34;fill-opacity:1;fill-rule:nonzero;stroke:none;stroke-width:2.28571415;marker:none;visibility:visible;display:inline;overflow:visible;enable-background:accumulate"
     inkscape:connector-curvature="0" />
  <path
     inkscape:connector-curvature="0"
     style="color:#000000;fill:#ff9955;fill-opacity:1;fill-rule:nonzero;stroke:none;marker:none;visibility:visible;display:inline;overflow:visible;enable-background:accumulate"
     d="M 2,0 0,1 0,4 32,4 64,4 64,1 62,0 32,0 2,0 z"
     id="path6502-2" />
  <path
     d="M 64,6 62,4 64,3 z"
     id="path3028-6"
     style="fill:#ee7944;fill-opacity:1"
     inkscape:connector-curvature="0" />
  <path
     inkscape:connector-curvature="0"
     style="fill:#ffa265;fill-opacity:1;fill-rule:nonzero"
     d="M 0,3 0,6 2,4 z"
     id="path4298-9"
     sodipodi:nodetypes="cccc" />
  <g
     id="g3446" />
  <path
     id="path3226"
     d="m 32,13.15625 c -10.588167,0 -19.15625,9.849333 -19.15625,20.4375 0,2.387933 3.070938,1.987637 2.65625,5.90625 -0.789175,7.457342 3.818291,14.016604 11.78125,15.34375 1.356414,-0.777618 -5.641919,-13.875383 -8.3125,-16.5 C 17.150335,36.556635 15.833587,37.732621 15.0625,33.875 13.251908,24.816922 22.855674,16.9375 32,16.9375 c 9.144326,0 18.748092,7.879422 16.9375,16.9375 -0.771087,3.857621 -2.087835,2.681635 -3.90625,4.46875 -2.670581,2.624617 -9.668914,15.722382 -8.3125,16.5 C 44.681709,53.516604 49.289175,46.957342 48.5,39.5 48.085312,35.581387 51.15625,35.981683 51.15625,33.59375 51.15625,23.005583 42.588167,13.15625 32,13.15625 z"
     style="color:#000000;fill:#fadad3;fill-opacity:1;fill-rule:nonzero;stroke:none;stroke-width:2;marker:none;visibility:visible;display:inline;overflow:visible;enable-background:accumulate"
     inkscape:connector-curvature="0" />
</svg>

<svg xmlns="http://www.w3.org/2000/svg" viewBox="0 0 64 64"><g color="#000"><path d="m0 4v30 28l2 2h30 30l2-2v-28-30h-32-32" fill="#de5a34"/><path d="m2 0l-2 1v3h32 32v-3l-2-1h-30-30" fill="#f95"/></g><path d="m64 6l-2-2 2-1z" fill="#ee7944"/><path d="m0 3v3l2-2z" fill="#ffa265"/><path d="m32 13.156c-10.588 0-19.16 9.849-19.16 20.438 0 2.388 3.071 1.988 2.656 5.906-.789 7.457 3.818 14.02 11.781 15.344 1.356-.778-5.642-13.875-8.313-16.5-1.818-1.787-3.135-.611-3.906-4.469-1.811-9.06 7.793-16.938 16.938-16.938 9.144 0 18.748 7.879 16.938 16.938-.771 3.858-2.088 2.682-3.906 4.469-2.671 2.625-9.669 15.722-8.313 16.5 7.963-1.327 12.57-7.886 11.781-15.344-.415-3.919 2.656-3.518 2.656-5.906 0-10.588-8.568-20.438-19.16-20.438" fill="#fadad3" color="#000"/></svg>
